X:1
T:Miltown Lasses
Z:robin.beech@mcgill.ca
S:Christina Smith, Victoria Bar, Glasgow
R:reel
M:4/4
L:1/8
K:Am
DE |: FDDF ECCD | (3FED DF G2cG | FDDF ECCD | EFAB cBAG  :|
 Addc d3c | A_Bde fdec | Addc de2c | AGAB cGEG |
Addc d3c | A_Bde fdeg | fdeg fdec | Accc cAGE |]
